X: 10953
M: C|
L: 1/8
K: F
u(A>B) |\
(c>a)g>f (e>f)g>e | (f<a)c2 d>cA>F | (E>F)G>A (B>d)c>B | (A>c)B>A G2A>B |
(c>a)g>f (e>f)g>e | (f<a)c2 d>cA>F | (E>F)G>A (B>d)c>B | A2F2F2 :|
K: C
|: u(E>F) |\


